X:2082
T:The girls of Balladoole 
C:Wesley Cleator, Peel & Castletown
O:Isle of Man
Z:Clague Collection
S:Traditional 
B:Kiaull Vannin #82 
M:2/4 
L:1/4 
Q:240 
K:D 
f d|d A|d2|f d|d A|c e|f d|d A|d e/f/|g e|e d|c e:| 
D D|F A|d2|A A|A G|F D|D D|F A|d2|e e|e d|c e:||+D.C.+ fd|dA|d2|| 

